icons/svgs/bus-solid.svg

<svg width="24" height="24" viewBox="0 0 24 24" fill="none" xmlns="http://www.w3.org/2000/svg">
<path d="M12.5 2C17.7344 2 21.25 3.40625 21.25 5.125V5.75V7C21.9141 7 22.5 7.58594 22.5 8.25V10.75C22.5 11.4531 21.9141 12 21.25 12V18.25C21.25 18.9531 20.6641 19.5 20 19.5V20.75C20 21.4531 19.4141 22 18.75 22H17.5C16.7969 22 16.25 21.4531 16.25 20.75V19.5H8.75V20.75C8.75 21.4531 8.16406 22 7.5 22H6.25C5.54688 22 5 21.4531 5 20.75V19.5C4.29688 19.5 3.75 18.9531 3.75 18.25V12C3.04688 12 2.5 11.4531 2.5 10.75V8.25C2.5 7.58594 3.04688 7 3.75 7V5.75V5.125C3.75 3.40625 7.22656 2 12.5 2ZM6.25 8.25V12C6.25 12.7031 6.79688 13.25 7.5 13.25H11.875V7H7.5C6.79688 7 6.25 7.58594 6.25 8.25ZM13.125 13.25H17.5C18.1641 13.25 18.75 12.7031 18.75 12V8.25C18.75 7.58594 18.1641 7 17.5 7H13.125V13.25ZM6.875 17.625C7.53906 17.625 8.125 17.0781 8.125 16.375C8.125 15.7109 7.53906 15.125 6.875 15.125C6.17188 15.125 5.625 15.7109 5.625 16.375C5.625 17.0781 6.17188 17.625 6.875 17.625ZM18.125 17.625C18.7891 17.625 19.375 17.0781 19.375 16.375C19.375 15.7109 18.7891 15.125 18.125 15.125C17.4219 15.125 16.875 15.7109 16.875 16.375C16.875 17.0781 17.4219 17.625 18.125 17.625ZM16.25 5.125C16.25 4.8125 15.9375 4.5 15.625 4.5H9.375C9.02344 4.5 8.75 4.8125 8.75 5.125C8.75 5.47656 9.02344 5.75 9.375 5.75H15.625C15.9375 5.75 16.25 5.47656 16.25 5.125Z" fill="black"/>
</svg>

<svg xmlns="http://www.w3.org/2000/svg" width="24" height="24" fill="currentColor" class="icon-bus-solid" viewBox="0 0 24 24">
  <mask id="a" width="21" height="20" x="2" y="2" maskUnits="userSpaceOnUse" style="mask-type:alpha">
    <path d="M12.5 2c5.234 0 8.75 1.406 8.75 3.125V7c.664 0 1.25.586 1.25 1.25v2.5c0 .703-.586 1.25-1.25 1.25v6.25c0 .703-.586 1.25-1.25 1.25v1.25c0 .703-.586 1.25-1.25 1.25H17.5c-.703 0-1.25-.547-1.25-1.25V19.5h-7.5v1.25c0 .703-.586 1.25-1.25 1.25H6.25C5.547 22 5 21.453 5 20.75V19.5c-.703 0-1.25-.547-1.25-1.25V12c-.703 0-1.25-.547-1.25-1.25v-2.5C2.5 7.586 3.047 7 3.75 7V5.125C3.75 3.406 7.227 2 12.5 2M6.25 8.25V12c0 .703.547 1.25 1.25 1.25h4.375V7H7.5c-.703 0-1.25.586-1.25 1.25m6.875 5H17.5c.664 0 1.25-.547 1.25-1.25V8.25c0-.664-.586-1.25-1.25-1.25h-4.375zm-6.25 4.375c.664 0 1.25-.547 1.25-1.25 0-.664-.586-1.25-1.25-1.25-.703 0-1.25.586-1.25 1.25 0 .703.547 1.25 1.25 1.25m11.25 0c.664 0 1.25-.547 1.25-1.25 0-.664-.586-1.25-1.25-1.25-.703 0-1.25.586-1.25 1.25 0 .703.547 1.25 1.25 1.25m-1.875-12.5c0-.312-.312-.625-.625-.625h-6.25a.64.64 0 0 0-.625.625c0 .352.273.625.625.625h6.25a.64.64 0 0 0 .625-.625"/>
  </mask>
  <g mask="url(#a)">
    <path d="M0 0h24v24H0z"/>
  </g>
</svg>
